src/xmb/retrosystem/core-infos.svg

<?xml version="1.0" encoding="UTF-8" standalone="no"?>
<svg
   xmlns:dc="http://purl.org/dc/elements/1.1/"
   xmlns:cc="http://creativecommons.org/ns#"
   xmlns:rdf="http://www.w3.org/1999/02/22-rdf-syntax-ns#"
   xmlns:svg="http://www.w3.org/2000/svg"
   xmlns="http://www.w3.org/2000/svg"
   xmlns:sodipodi="http://sodipodi.sourceforge.net/DTD/sodipodi-0.dtd"
   xmlns:inkscape="http://www.inkscape.org/namespaces/inkscape"
   version="1.1"
   id="Calque_1"
   x="0px"
   y="0px"
   width="64"
   height="64"
   viewBox="0 0 64 64"
   enable-background="new 0 0 64 64"
   xml:space="preserve"
   inkscape:version="0.92.3 (2405546, 2018-03-11)"
   sodipodi:docname="menu_info.svg"><metadata
     id="metadata24"><rdf:RDF><cc:Work
         rdf:about=""><dc:format>image/svg+xml</dc:format><dc:type
           rdf:resource="http://purl.org/dc/dcmitype/StillImage" /><dc:title /></cc:Work></rdf:RDF></metadata><defs
     id="defs22" /><sodipodi:namedview
     pagecolor="#ffffff"
     bordercolor="#666666"
     borderopacity="1"
     objecttolerance="10"
     gridtolerance="10"
     guidetolerance="10"
     inkscape:pageopacity="0"
     inkscape:pageshadow="2"
     inkscape:window-width="1920"
     inkscape:window-height="1001"
     id="namedview20"
     showgrid="true"
     inkscape:zoom="7.375"
     inkscape:cx="-20.292904"
     inkscape:cy="35.636152"
     inkscape:window-x="-9"
     inkscape:window-y="-9"
     inkscape:window-maximized="1"
     inkscape:current-layer="Calque_1"><inkscape:grid
       type="xygrid"
       id="grid4133"
       empspacing="4" /></sodipodi:namedview><path
     inkscape:connector-curvature="0"
     d="m 41.428095,16 h -1.59686 -15.66247 -1.597216 L 21.73859,17.392364 13.907355,30.483273 13,32 13.907355,33.517091 21.73859,46.608 22.571549,48 h 1.597216 15.66247 1.59686 L 42.261054,46.608 50.092289,33.517091 51,32 50.092289,30.483273 42.261054,17.392364 Z"
     style="fill:#354f9f;fill-opacity:1;fill-rule:nonzero;stroke:#1a1a1a;stroke-width:1;stroke-opacity:1"
     id="path28" /><g
     id="g817"
     transform="translate(1.0000005)"
     style="fill:#f2f2f2"><path
       id="path40"
       style="fill:#f2f2f2;fill-opacity:1;fill-rule:nonzero;stroke:none;stroke-width:0.99999994"
       d="M 33,41 H 29 V 29 h 4 z"
       inkscape:connector-curvature="0" /><path
       inkscape:connector-curvature="0"
       d="m 32.96525,26 h -3.965251 l 0.0345,-3 h 3.9655 z"
       style="fill:#f2f2f2;fill-opacity:1;fill-rule:nonzero;stroke:none;stroke-width:1"
       id="path44" /></g></svg>

<svg xmlns="http://www.w3.org/2000/svg" xml:space="preserve" width="64" height="64"><path d="M41.428 16H22.572l-.833 1.392-7.832 13.091L13 32l.907 1.517 7.832 13.091.833 1.392h18.856l.833-1.392 7.831-13.09L51 32l-.908-1.517-7.83-13.09Z" style="fill:#354f9f;fill-opacity:1;fill-rule:nonzero;stroke:#1a1a1a;stroke-width:1;stroke-opacity:1"/><g style="fill:#f2f2f2"><path d="M33 41h-4V29h4z" style="fill:#f2f2f2;fill-opacity:1;fill-rule:nonzero;stroke:none;stroke-width:.99999994" transform="translate(1)"/><path d="M32.965 26H29l.034-3H33z" style="fill:#f2f2f2;fill-opacity:1;fill-rule:nonzero;stroke:none;stroke-width:1" transform="translate(1)"/></g></svg>
